src/shared/assets/DarkMode.svg

<svg width="20" height="20" viewBox="0 0 20 20" fill="none" xmlns="http://www.w3.org/2000/svg">
<path fill-rule="evenodd" clip-rule="evenodd" d="M9.00291 2.04153C5.041 2.58481 1.99096 5.94093 1.99096 10C1.99096 14.4378 5.63673 18.0354 10.134 18.0354C13.3205 18.0354 16.0812 16.2286 17.4185 13.5958C17.0629 13.6425 16.7002 13.6666 16.3322 13.6666C11.8204 13.6666 8.16295 10.0575 8.16295 5.6054C8.16295 4.32653 8.46527 3.11631 9.00291 2.04153ZM0 10C0 4.47715 4.53715 0 10.134 0C10.4097 0 10.6831 0.0108881 10.9536 0.0322824C11.3265 0.0617683 11.6511 0.295015 11.794 0.636112C11.9369 0.97721 11.874 1.36858 11.6312 1.64929C10.7094 2.71459 10.1539 4.09473 10.1539 5.6054C10.1539 8.97244 12.92 11.702 16.3322 11.702C17.1475 11.702 17.9235 11.5466 18.6335 11.2653C18.9803 11.1278 19.3759 11.1936 19.6578 11.4357C19.9398 11.6777 20.0606 12.0552 19.9707 12.4132C18.8764 16.7697 14.8887 20 10.134 20C4.53715 20 0 15.5228 0 10Z" fill="#2D2D2D"/>
</svg>

<svg xmlns="http://www.w3.org/2000/svg" width="20" height="20" fill="none"><path fill="#2D2D2D" fill-rule="evenodd" d="M9.003 2.042C5.04 2.585 1.99 5.94 1.99 10c0 4.438 3.646 8.035 8.143 8.035a8.156 8.156 0 0 0 7.285-4.44c-.356.047-.719.072-1.087.072-4.512 0-8.17-3.61-8.17-8.062 0-1.278.303-2.489.84-3.563ZM0 10C0 4.477 4.537 0 10.134 0c.276 0 .55.01.82.032.372.03.697.263.84.604a.972.972 0 0 1-.163 1.013 6.021 6.021 0 0 0-1.477 3.956c0 3.367 2.766 6.097 6.178 6.097.816 0 1.591-.155 2.302-.437a1.005 1.005 0 0 1 1.024.17c.282.243.403.62.313.978C18.876 16.77 14.889 20 10.134 20 4.537 20 0 15.523 0 10Z" clip-rule="evenodd"/></svg>
